icons/svg/subway/subway_newyork_path.svg

<?xml version="1.0" encoding="UTF-8" standalone="no"?>
<svg
   xmlns:dc="http://purl.org/dc/elements/1.1/"
   xmlns:cc="http://creativecommons.org/ns#"
   xmlns:rdf="http://www.w3.org/1999/02/22-rdf-syntax-ns#"
   xmlns:svg="http://www.w3.org/2000/svg"
   xmlns="http://www.w3.org/2000/svg"
   xmlns:sodipodi="http://sodipodi.sourceforge.net/DTD/sodipodi-0.dtd"
   xmlns:inkscape="http://www.inkscape.org/namespaces/inkscape"
   width="16"
   height="16"
   id="svg2"
   version="1.1"
   inkscape:version="0.91 r13725"
   sodipodi:docname="subway_newyork_path.svg">
  <defs
     id="defs13">
    <linearGradient
       gradientTransform="matrix(0.08596979,0,0,0.08596979,0.67480439,1.9432845)"
       x1="87.101639"
       y1="121.69753"
       x2="87.260849"
       y2="1.2385538"
       id="l1"
       gradientUnits="userSpaceOnUse">
      <stop
         style="stop-color:#e92203;stop-opacity:1"
         offset="0"
         id="stop5" />
      <stop
         style="stop-color:#ff0000;stop-opacity:0.64628822"
         offset="1"
         id="stop7" />
    </linearGradient>
    <linearGradient
       gradientTransform="matrix(0.08400469,0,0,0.08400469,0.8422306,2.0814238)"
       x1="87.101639"
       y1="121.69753"
       x2="87.260849"
       y2="1.2385538"
       id="l1-2"
       gradientUnits="userSpaceOnUse">
      <stop
         style="stop-color:#e92203;stop-opacity:1"
         offset="0"
         id="stop5-8" />
      <stop
         style="stop-color:#ff0000;stop-opacity:0.64628822"
         offset="1"
         id="stop7-4" />
    </linearGradient>
  </defs>
  <sodipodi:namedview
     pagecolor="#ffffff"
     bordercolor="#666666"
     borderopacity="1"
     objecttolerance="10"
     gridtolerance="10"
     guidetolerance="10"
     inkscape:pageopacity="0"
     inkscape:pageshadow="2"
     inkscape:window-width="1920"
     inkscape:window-height="1006"
     id="namedview11"
     showgrid="true"
     inkscape:zoom="32"
     inkscape:cx="7.1127255"
     inkscape:cy="7.4042489"
     inkscape:window-x="1920"
     inkscape:window-y="0"
     inkscape:window-maximized="1"
     inkscape:current-layer="svg2"
     showguides="false"
     inkscape:snap-global="false">
    <sodipodi:guide
       position="0,0"
       orientation="0,580"
       id="guide2989" />
    <sodipodi:guide
       position="580,0"
       orientation="-580,0"
       id="guide2991" />
    <sodipodi:guide
       position="580,580"
       orientation="0,-580"
       id="guide2993" />
    <sodipodi:guide
       position="0,580"
       orientation="580,0"
       id="guide2995" />
    <sodipodi:guide
       position="0,0"
       orientation="0,580"
       id="guide2997" />
    <sodipodi:guide
       position="580,0"
       orientation="-580,0"
       id="guide2999" />
    <sodipodi:guide
       position="580,580"
       orientation="0,-580"
       id="guide3001" />
    <sodipodi:guide
       position="0,580"
       orientation="580,0"
       id="guide3003" />
    <inkscape:grid
       type="xygrid"
       id="grid3013"
       empspacing="5"
       visible="true"
       enabled="true"
       snapvisiblegridlinesonly="true" />
  </sodipodi:namedview>
  <metadata
     id="metadata2975">image/svg+xmlen<rdf:RDF>
  <cc:Work
     rdf:about="">
    <dc:format>image/svg+xml</dc:format>
    <dc:type
       rdf:resource="http://purl.org/dc/dcmitype/StillImage" />
    <dc:title></dc:title>
  </cc:Work>
</rdf:RDF>
</metadata>
  <path
     sodipodi:type="inkscape:offset"
     inkscape:radius="0.8125"
     inkscape:original="M 3.8574219 3.4707031 C 3.4779263 3.4707031 3.171875 3.7748013 3.171875 4.1542969 L 3.171875 11.845703 C 3.171875 12.225199 3.4779263 12.529297 3.8574219 12.529297 L 12.142578 12.529297 C 12.522074 12.529297 12.828125 12.225199 12.828125 11.845703 L 12.828125 4.1542969 C 12.828125 3.7748013 12.522074 3.4707031 12.142578 3.4707031 L 3.8574219 3.4707031 z "
     style="color:#000000;clip-rule:nonzero;display:inline;overflow:visible;visibility:visible;opacity:1;isolation:auto;mix-blend-mode:normal;color-interpolation:sRGB;color-interpolation-filters:linearRGB;solid-color:#000000;solid-opacity:1;fill:#fefefe;fill-opacity:1;fill-rule:nonzero;stroke:none;stroke-width:1;stroke-linecap:butt;stroke-linejoin:miter;stroke-miterlimit:4;stroke-dasharray:none;stroke-dashoffset:0;stroke-opacity:1;marker:none;color-rendering:auto;image-rendering:auto;shape-rendering:auto;text-rendering:auto;enable-background:accumulate"
     id="path4453"
     d="m 3.8574219,2.6582031 c -0.8135451,0 -1.4980469,0.679761 -1.4980469,1.4960938 l 0,7.6914061 c 0,0.816333 0.6845021,1.496094 1.4980469,1.496094 l 8.2851561,0 c 0.813545,0 1.498047,-0.679762 1.498047,-1.496094 l 0,-7.6914061 c 0,-0.8163324 -0.684502,-1.4960938 -1.498047,-1.4960938 l -8.2851561,0 z"
     transform="matrix(0.9501385,0,0,0.9501385,0.39889197,0.39889197)" />
  <rect
     style="color:#000000;clip-rule:nonzero;display:inline;overflow:visible;visibility:visible;opacity:1;isolation:auto;mix-blend-mode:normal;color-interpolation:sRGB;color-interpolation-filters:linearRGB;solid-color:#000000;solid-opacity:1;fill:#0095d3;fill-opacity:1;fill-rule:nonzero;stroke:none;stroke-width:1;stroke-linecap:butt;stroke-linejoin:miter;stroke-miterlimit:4;stroke-dasharray:none;stroke-dashoffset:0;stroke-opacity:1;marker:none;color-rendering:auto;image-rendering:auto;shape-rendering:auto;text-rendering:auto;enable-background:accumulate"
     id="rect4420"
     width="9.1749439"
     height="8.6080704"
     x="3.4125283"
     y="3.6959648"
     ry="0.65085441" />
  <path
     inkscape:connector-curvature="0"
     style="fill:#fefeff;fill-opacity:0.94117647"
     d="m 5.2591555,10.94433 c 0.2138644,-0.0057 0.2475007,-0.02308 0.2912085,-0.21025 0.034889,-0.148616 0.013253,-0.195023 -0.1965645,-0.195023 l -0.3683117,0 -0.094789,0.405273 0.3684563,0 m -1.0714432,0.706264 0.3381933,-1.447176 1.0140978,0 c 0.5000614,0 0.6527737,0.152374 0.5644907,0.530662 -0.095126,0.407055 -0.2540065,0.546034 -0.8161841,0.546034 l -0.4760149,0 -0.0865,0.37048 -0.538083,0 z"
     id="path6" />
  <path
     inkscape:connector-curvature="0"
     style="fill:#fefeff;fill-opacity:0.94117647"
     d="m 7.2099107,10.492892 -0.00544,0 -0.3913462,0.627088 0.500447,0 -0.1036553,-0.627088 m -0.578131,0.908755 -0.1576758,0.248994 -0.5596236,0 0.943404,-1.447176 0.8176778,0 0.2750651,1.447176 -0.5486363,0 -0.046647,-0.248994 -0.7235639,0 z"
     id="path8" />
  <polyline
     style="fill:#fefeff;fill-opacity:0.94117647"
     points="141.19,103.062 130.026,103.062 135.415,79.996 124.698,79.996 126.324,73.031 159.479,73.031   157.847,79.996 146.577,79.996 141.19,103.062 "
     id="polyline10"
     transform="matrix(0.0481894,0,0,0.0481894,2.174407,6.6840969)" />
  <polyline
     style="fill:#fefeff;fill-opacity:0.94117647"
     points="192.984,103.062 181.82,103.062 184.569,91.288 170,91.288 167.254,103.062 156.087,103.062   163.103,73.031 174.27,73.031 171.627,84.321 186.198,84.321 188.836,73.031 200,73.031 192.984,103.062 "
     id="polyline12"
     transform="matrix(0.0481894,0,0,0.0481894,2.174407,6.6840969)" />
  <path
     inkscape:connector-curvature="0"
     style="fill:#fefeff;fill-opacity:0.94117647"
     d="m 9.6982856,4.4074574 c 0,0 -0.072916,0.3114001 -0.088689,0.3795487 -0.084434,0 -3.7282917,0 -3.7282917,0 -0.9570142,0 -1.1110639,0.7304147 -1.1126043,0.7376771 5.134e-4,-0.00213 -0.476013,1.9325141 -0.476013,1.9325141 l -0.02142,0.087071 2.288809,-0.5614008 0.0069,-0.033454 C 6.5698335,6.9362906 6.8397869,5.6473359 6.9203328,5.3975556 6.9658874,5.2562703 7.0812778,5.2493748 7.1954211,5.254363 l 0.03235,0.00103 c 0,0 2.1413616,0 2.2706165,0 C 9.4758675,5.3513409 9.3901866,5.716218 9.3901866,5.716218 L 11.82527,5.0519712 9.7116366,4.3493587 9.6982856,4.4074574"
     id="path14" />
  <path
     inkscape:connector-curvature="0"
     style="fill:#fefeff;fill-opacity:0.94117647"
     d="m 11.586199,5.2725555 -2.2406868,0.6412128 -0.00726,0.031323 C 9.3353933,5.9576361 9.0436486,7.2256097 8.9920053,7.4769307 8.963103,7.6174829 8.8755145,7.6251115 8.7448658,7.6210041 l -0.060152,-5.14e-4 c -0.041814,0.00143 -1.4784353,5.14e-4 -2.2913032,0 0.024428,-0.096978 0.1159773,-0.4606082 0.1159773,-0.4606082 L 4.1747303,7.7380811 5.8587115,9.8445984 c 0,0 0.3951004,-1.6830273 0.413733,-1.7626935 0.084287,0 3.7601285,0 3.7601285,0 1.000955,0 1.130577,-0.6784047 1.139747,-0.7375299 8.8e-4,-0.0039 0.503301,-2.0976413 0.503301,-2.0976413 l -0.08943,0.025822"
     id="path16" />
</svg>

<svg width="16" height="16" viewBox="0 0 16 16" fill="none" xmlns="http://www.w3.org/2000/svg">
<path d="M4.06398 2.92456C3.291 2.92456 2.64062 3.57043 2.64062 4.34606V11.654C2.64062 12.4296 3.291 13.0755 4.06398 13.0755H11.936C12.709 13.0755 13.3594 12.4296 13.3594 11.654V4.34606C13.3594 3.57043 12.709 2.92456 11.936 2.92456H4.06398V2.92456Z" fill="#FEFEFE"/>
<path d="M11.9366 3.69595H4.06339C3.70393 3.69595 3.41254 3.98735 3.41254 4.34681V11.6532C3.41254 12.0126 3.70393 12.304 4.06339 12.304H11.9366C12.2961 12.304 12.5875 12.0126 12.5875 11.6532V4.34681C12.5875 3.98735 12.2961 3.69595 11.9366 3.69595Z" fill="#0095D3"/>
<path d="M5.25913 10.9443C5.47299 10.9386 5.50663 10.9213 5.55034 10.7341C5.58522 10.5855 5.56359 10.5391 5.35377 10.5391H4.98546L4.89067 10.9443H5.25913V10.9443ZM4.18768 11.6506L4.52588 10.2034H5.53997C6.04004 10.2034 6.19275 10.3558 6.10447 10.7341C6.00934 11.1411 5.85046 11.2801 5.28828 11.2801H4.81227L4.72577 11.6506H4.18768V11.6506Z" fill="#FEFEFF" fill-opacity="0.941176"/>
<path d="M7.20991 10.4929H7.20447L6.81313 11.12H7.31358L7.20992 10.4929H7.20991ZM6.63179 11.4016L6.47411 11.6506H5.91449L6.85789 10.2035H7.67557L7.95064 11.6506H7.402L7.35535 11.4016H6.63179V11.4016Z" fill="#FEFEFF" fill-opacity="0.941176"/>
<path d="M8.97827 11.6506H8.44029L8.69998 10.5391H8.18353L8.26189 10.2034H9.85961L9.78096 10.5391H9.23787L8.97827 11.6506Z" fill="#FEFEFF" fill-opacity="0.941176"/>
<path d="M11.4742 11.6506H10.9362L11.0687 11.0832H10.3666L10.2343 11.6506H9.69617L10.0343 10.2034H10.5724L10.445 10.7475H11.1472L11.2743 10.2034H11.8123L11.4742 11.6506Z" fill="#FEFEFF" fill-opacity="0.941176"/>
<path d="M9.69826 4.40746C9.69826 4.40746 9.62534 4.71886 9.60957 4.78701C9.52514 4.78701 5.88128 4.78701 5.88128 4.78701C4.92426 4.78701 4.77021 5.51743 4.76867 5.52469C4.76919 5.52256 4.29266 7.4572 4.29266 7.4572L4.27124 7.54427L6.56005 6.98287L6.56695 6.94942C6.56981 6.9363 6.83976 5.64734 6.92031 5.39756C6.96586 5.25628 7.08125 5.24938 7.19539 5.25437L7.22774 5.2554C7.22774 5.2554 9.36911 5.2554 9.49836 5.2554C9.47584 5.35135 9.39016 5.71622 9.39016 5.71622L11.8252 5.05198L9.71161 4.34937L9.69826 4.40746Z" fill="#FEFEFF" fill-opacity="0.941176"/>
<path d="M11.5862 5.27256L9.34553 5.91377L9.33827 5.94509C9.33541 5.95764 9.04366 7.22561 8.99202 7.47693C8.96312 7.61748 8.87553 7.62511 8.74488 7.62101L8.68473 7.62049C8.64291 7.62192 7.20629 7.62101 6.39342 7.62049C6.41785 7.52351 6.5094 7.15988 6.5094 7.15988L4.17474 7.73808L5.85873 9.8446C5.85873 9.8446 6.25383 8.16157 6.27246 8.08191C6.35675 8.08191 10.0326 8.08191 10.0326 8.08191C11.0335 8.08191 11.1632 7.4035 11.1723 7.34438C11.1732 7.34048 11.6756 5.24673 11.6756 5.24673L11.5862 5.27256" fill="#FEFEFF" fill-opacity="0.941176"/>
</svg>
